!!!OTL: 138. Freylekhs
!!!Genre:	Freylekhs
!!!Mode:	Minor
!!!Listening/dance:	dance
!!!One_Mode:	no
**kern
*thru
*I"P1
*clefG2
*k[b-e-]
*B-:
!LO:TX:a:i:t=Bb-major
=17
16ffnLL
16ggJ
8aa-XJ
(8qaa-/
16ggLL)
16ffJ
8ee-J
=18
(8qee-/
8ddL)
(8qcc#X/
8ddJ)
8fL
8b-J
=19
16ffLL
16ggJ
8aa-XJ
(8qaa-/
16ggLL)
16ffJ
8ee-J
=20
(8qee-/
8ddL)
(8qcc#X/
8ddJ)
8fL
8b-J
!!!End-Modulation
*B-:
!LO:TX:a:i:t=Bb-major
=17
16ffnLL
16ggJ
8aa-XJ
(8qaa-/
16ggLL)
16ffJ
8ee-J
=18
(8qee-/
8ddL)
(8qcc#X/
8ddJ)
8fL
8b-J
=19
16ffLL
16ggJ
8aa-XJ
(8qaa-/
16ggLL)
16ffJ
8ee-J
=20
(8qee-/
8ddL)
(8qcc#X/
8ddJ)
8fL
8b-J
!!!End-Modulation
*-
